X:1
T:Fátima, 11.11.11.11 D
T:Fátima, 11.11.11.11 D
T:Phoebe Palmer Knapp, 1883
T:Public Domain Courtesy of the Cyber Hymnal™
C:Phoebe Palmer Knapp, 1883
Z:Public Domain
Z:Courtesy of the Cyber Hymnal™
%%score ( 1 2 ) ( 3 4 )
L:1/8
Q:1/4=112
M:3/4
K:Eb
V:1 treble 
V:2 treble 
V:3 bass 
V:4 bass 
V:1
 B,2 | E2 E2 (GF) | E2 E2 (GA) | [EB]2 [EB]2 [Ec]2 | [DF]4 ([DF][EG]) | [FA]2 [EG]2 [DF]2 | %6
 [EB]2 [EG]2 E2 | [B,E]2 [B,D]2 [B,E]2 | [DF]4 B,2 | E2 E2 (GF) | E2 E2 (GA) | [EB]2 [EB]2 [Ec]2 | %12
 [DF]4 ([DF][EG]) | [FA]2 [EG]2 [DF]2 | [EB]2 [EG]2 E2 | [EG]2 [EG]2 [DF]2 | E4 [EB]2 | %17
 [Ec]2 [Ec]2 [Ee]2 | [EB]2 [EG]2 [EA]2 | [Ec]2 [Ec]2 [Ee]2 | [EB]4 [FB]2 | [F=A]2 [FA]2 [FA]2 | %22
 [Fe]2 [Fd]2 [Gc]2 | [FB]2 [EB]2 [E=A]2 | [DB]4 [DB]2 | [EG]2 E2 [EB]2 | [DA]2 [DF]2 [Dc]2 | %27
 [DB]2 [Dc]2 [Fd]2 | [Ee]4 [Ge]2 | [Ae]2 [Ac]2 [Ee]2 | [EB]2 [EG]2 E2 | [EG]2 [DG]2 [DF]2 | %32
 E4 x2 |] x4 |] %34
V:2
 B,2 | E2 E2 E2 | E2 E2 E2 | x6 | x6 | x6 | x4 E2 | x6 | x4 B,2 | E2 E2 E2 | E2 E2 E2 | x6 | x6 | %13
 x6 | x4 E2 | x6 | E4 x2 | x6 | x6 | x6 | x6 | x6 | x6 | x6 | x6 | x2 E2 x2 | x6 | x6 | x6 | x6 | %30
 x4 E2 | x6 | E4 x2 |] x4 |] %34
V:3
 [B,,B,]2 | [E,G,]2 [E,G,]2 (B,A,) | [E,G,]2 [E,G,]2 (B,F,) | [E,G,]2 [E,G,]2 [E,A,]2 | %4
 [B,,B,]4 [B,,B,]2 | [D,B,]2 [E,B,]2 [A,B,]2 | [G,B,]2 [E,B,]2 [E,G,]2 | [G,B,]2 [F,A,]2 [E,G,]2 | %8
 [B,,B,]4 [B,,B,]2 | [E,G,]2 [E,G,]2 (B,A,) | x6 | [E,G,]2 [E,G,]2 (B,F,) | %12
 [E,G,]2 [E,G,]2 [E,A,]2 | [B,,B,]4 [B,,B,]2 | [D,B,]2 [E,B,]2 [A,B,]2 | [G,B,]2 [E,B,]2 [G,,B,]2 | %16
 [B,,B,]2 [B,,B,]2 (B,A,) | [E,G,]4 [E,G,]2 | A,2 A,2 [A,C]2 | [E,G,]2 [E,B,]2 [E,G,]2 | %20
 A,2 A,2 [A,C]2 | [E,G,]4 [D,B,]2 | [C,C]2 [F,C]2 [F,C]2 | [C,=A,]2 [B,,B,]2 [E,E]2 | %24
 [F,D]2 [F,C]2 [F,C]2 | [B,,B,]4 [B,,B,]2 | [E,B,]2 [E,G,]2 [E,G,]2 | [B,,F,]2 [B,,B,]2 [B,,A,]2 | %28
 [B,,A,]2 [B,,A,]2 [B,,A,]2 | [E,G,]4 [E,B,]2 | [A,C]2 A,2 [A,C]2 | [E,G,]2 [E,B,]2 [G,B,]2 | %32
 B,2 B,2 [B,,A,]2 |] [E,G,]4 |] %34
V:4
 x2 | x4 E,2 | x4 E,2 | x6 | x6 | x6 | x6 | x6 | x6 | x4 E,2 | x6 | x4 E,2 | x6 | x6 | x6 | x6 | %16
 x4 B,,2 | x6 | A,2 A,2 x2 | x6 | A,2 A,2 x2 | x6 | x6 | x6 | x6 | x6 | x6 | x6 | x6 | x6 | %30
 x2 A,2 x2 | x6 | B,2 B,2 x2 |] x4 |] %34

